X: 41526
T: Uncle Dimitri's
R: slip jig
M: 9/8
K: Gmajor
|:D2 d dcB c (3ccc|B (3BBB BAG AGE|D2 d dcB c (3ccc|BAG AGF (3GGG E:|
D (3DDD DEF E (3EEE|F (3FFF FGA GAB|c (3ccc cBA BAG|A (3AAA ABA GFE|
D (3DDD DEF E (3EEE|F (3FFF FGA GAB|cBA d2 D cBA|BAG AGF DEF||

